assets/images/payment-methods/bancontact.svg

<svg width="64" height="40" viewBox="0 0 64 40" fill="none" xmlns="http://www.w3.org/2000/svg">
<rect width="64" height="40" fill="white"/>
<path d="M11 32.8983V27H12.872C14.2327 27 15.1081 27.4971 15.1081 28.5251C15.1081 29.1065 14.8308 29.511 14.4407 29.7469C15.0041 29.9997 15.3334 30.4884 15.3334 31.1541C15.3334 32.3422 14.4407 32.8983 13.054 32.8983L11 32.8983ZM12.2047 29.452H13.0974C13.6434 29.452 13.8774 29.1908 13.8774 28.7105C13.8774 28.1965 13.4527 28.028 12.8807 28.028H12.2047V29.452ZM12.2047 31.8703H12.95C13.6781 31.8703 14.1027 31.6933 14.1027 31.1372C14.1027 30.5895 13.7387 30.362 13.054 30.362H12.2047V31.8703ZM17.6696 32.9994C16.4823 32.9994 15.8842 32.4348 15.8842 31.6765C15.8842 30.8423 16.5863 30.3536 17.6263 30.3451C17.8847 30.3497 18.1425 30.3723 18.3976 30.4126V30.2103C18.3976 29.6964 18.0943 29.452 17.5136 29.452C17.1224 29.4472 16.734 29.5159 16.3696 29.6542L16.1529 28.7442C16.5256 28.5925 17.1236 28.4914 17.6523 28.4914C18.9263 28.4914 19.559 29.1487 19.559 30.2862V32.6286C19.2037 32.8056 18.5363 32.9994 17.6696 32.9994V32.9994ZM18.3976 32.0472V31.1456C18.1956 31.1019 17.9893 31.0793 17.7823 31.0782C17.3836 31.0782 17.0716 31.2299 17.0716 31.6259C17.0716 31.9798 17.3316 32.1652 17.791 32.1652C17.9998 32.1718 18.2075 32.1314 18.3976 32.0472ZM20.401 32.8983V28.8621C21.0239 28.6189 21.6886 28.4931 22.3597 28.4914C23.6251 28.4914 24.3531 29.0981 24.3531 30.2187V32.8983H23.1571V30.303C23.1571 29.7216 22.8797 29.452 22.3511 29.452C22.0885 29.4484 21.8284 29.5001 21.5884 29.6037V32.8983L20.401 32.8983ZM28.5328 28.7442L28.3075 29.6626C27.9979 29.5322 27.6654 29.4607 27.3281 29.452C26.6261 29.452 26.2448 29.9323 26.2448 30.7243C26.2448 31.5922 26.6434 32.0388 27.3888 32.0388C27.7214 32.0299 28.0487 31.9554 28.3508 31.8197L28.5415 32.755C28.149 32.9248 27.7229 33.0082 27.2934 32.9994C25.8547 32.9994 25.0227 32.1315 25.0227 30.758C25.0227 29.393 25.8461 28.4914 27.2241 28.4914C27.6734 28.4893 28.1185 28.5752 28.5328 28.7442H28.5328ZM31.1166 32.9994C29.7819 32.9994 28.9499 32.0978 28.9499 30.7412C28.9499 29.393 29.7819 28.4914 31.1166 28.4914C32.46 28.4914 33.2746 29.393 33.2746 30.7412C33.2746 32.0978 32.46 32.9994 31.1166 32.9994H31.1166ZM31.1166 32.0388C31.732 32.0388 32.0526 31.5417 32.0526 30.7412C32.0526 29.9491 31.732 29.452 31.1166 29.452C30.5099 29.452 30.1719 29.9491 30.1719 30.7412C30.1719 31.5417 30.5099 32.0388 31.1166 32.0388H31.1166ZM33.9668 32.8983V28.8621C34.5896 28.6189 35.2543 28.4931 35.9255 28.4914C37.1908 28.4914 37.9188 29.0981 37.9188 30.2187V32.8983H36.7228V30.303C36.7228 29.7216 36.4455 29.452 35.9168 29.452C35.6543 29.4484 35.3941 29.5001 35.1541 29.6037V32.8983L33.9668 32.8983ZM40.6162 32.9994C39.5848 32.9994 39.0561 32.4517 39.0561 31.3394V29.5194H38.4668V28.5925H39.0561V27.6572L40.2521 27.5982V28.5925H41.2142V29.5194H40.2521V31.3226C40.2521 31.8113 40.4602 32.0388 40.8502 32.0388C41.0047 32.0384 41.1588 32.0215 41.3095 31.9883L41.3702 32.9236C41.1227 32.9768 40.8696 33.0023 40.6161 32.9994H40.6162ZM43.635 32.9994C42.4476 32.9994 41.8496 32.4348 41.8496 31.6765C41.8496 30.8423 42.5516 30.3536 43.5917 30.3451C43.8501 30.3497 44.1079 30.3723 44.363 30.4126V30.2103C44.363 29.6964 44.0597 29.452 43.479 29.452C43.0878 29.4472 42.6994 29.5159 42.335 29.6542L42.1183 28.7442C42.491 28.5925 43.089 28.4914 43.6177 28.4914C44.8917 28.4914 45.5244 29.1487 45.5244 30.2862V32.6286C45.169 32.8056 44.5017 32.9994 43.635 32.9994H43.635ZM44.363 32.0472V31.1456C44.1609 31.1019 43.9547 31.0793 43.7477 31.0782C43.349 31.0782 43.037 31.2299 43.037 31.6259C43.037 31.9798 43.297 32.1652 43.7563 32.1652C43.9652 32.1718 44.1728 32.1314 44.363 32.0472H44.363ZM49.6164 28.7442L49.391 29.6626C49.0814 29.5322 48.749 29.4607 48.4117 29.452C47.7097 29.452 47.3283 29.9323 47.3283 30.7243C47.3283 31.5922 47.727 32.0388 48.4724 32.0388C48.805 32.0299 49.1323 31.9554 49.4344 31.8197L49.6251 32.755C49.2326 32.9248 48.8065 33.0082 48.377 32.9994C46.9383 32.9994 46.1063 32.1315 46.1063 30.758C46.1063 29.393 46.9297 28.4914 48.3077 28.4914C48.757 28.4893 49.2021 28.5752 49.6164 28.7442H49.6164ZM52.246 32.9994C51.2146 32.9994 50.686 32.4517 50.686 31.3394V29.5194H50.0966V28.5925H50.686V27.6572L51.882 27.5982V28.5925H52.844V29.5194H51.882V31.3226C51.882 31.8113 52.09 32.0388 52.48 32.0388C52.6345 32.0384 52.7886 32.0215 52.9393 31.9883L53 32.9236C52.7525 32.9768 52.4995 33.0023 52.246 32.9994H52.246Z" fill="#1E3764"/>
<path d="M19.3425 24C25.6713 24 28.8356 19.5 32 15H11V24H19.3425Z" fill="url(#paint0_linear)"/>
<path d="M44.6575 7C38.3287 7 35.1644 11 32 15H53V7H44.6575Z" fill="url(#paint1_linear)"/>
<defs>
<linearGradient id="paint0_linear" x1="15.2476" y1="19.9155" x2="30.8386" y2="14.486" gradientUnits="userSpaceOnUse">
<stop stop-color="#005AB9"/>
<stop offset="1" stop-color="#1E3764"/>
</linearGradient>
<linearGradient id="paint1_linear" x1="33.2715" y1="15.6939" x2="49.3939" y2="9.89188" gradientUnits="userSpaceOnUse">
<stop stop-color="#FBA900"/>
<stop offset="1" stop-color="#FFD800"/>
</linearGradient>
</defs>
</svg>

<svg xmlns="http://www.w3.org/2000/svg" width="64" height="40" fill="none"><path fill="#fff" d="M0 0h64v40H0z"/><path fill="#1E3764" d="M11 32.9V27h1.87c1.36 0 2.24.5 2.24 1.53 0 .58-.28.98-.67 1.22.56.25.9.74.9 1.4 0 1.2-.9 1.75-2.29 1.75H11Zm1.2-3.45h.9c.54 0 .78-.26.78-.74 0-.51-.43-.68-1-.68h-.68v1.42Zm0 2.42h.75c.73 0 1.15-.18 1.15-.73s-.36-.78-1.05-.78h-.85v1.51ZM17.67 33c-1.19 0-1.79-.57-1.79-1.32 0-.84.7-1.33 1.75-1.33.25 0 .51.02.77.06v-.2c0-.51-.3-.76-.89-.76-.39 0-.78.07-1.14.2l-.22-.9a4.4 4.4 0 0 1 1.5-.26c1.28 0 1.9.66 1.9 1.8v2.34c-.35.18-1.01.37-1.88.37Zm.73-.95v-.9c-.2-.05-.41-.07-.62-.07-.4 0-.7.15-.7.55 0 .35.25.54.71.54.21 0 .42-.04.6-.12Zm2 .85v-4.04a5.43 5.43 0 0 1 1.96-.37c1.27 0 2 .6 2 1.73v2.68h-1.2v-2.6c0-.58-.28-.85-.8-.85-.27 0-.53.05-.77.15v3.3H20.4Zm8.13-4.16-.22.92a2.7 2.7 0 0 0-.98-.2c-.7 0-1.09.47-1.09 1.26 0 .87.4 1.32 1.15 1.32.33-.01.66-.08.96-.22l.2.94c-.4.16-.83.25-1.26.24-1.44 0-2.27-.87-2.27-2.24s.83-2.27 2.2-2.27c.45 0 .9.09 1.31.25ZM31.12 33c-1.34 0-2.17-.9-2.17-2.26 0-1.35.83-2.25 2.17-2.25 1.34 0 2.15.9 2.15 2.25 0 1.36-.81 2.26-2.15 2.26Zm0-.96c.61 0 .93-.5.93-1.3s-.32-1.29-.93-1.29c-.61 0-.95.5-.95 1.3s.34 1.29.95 1.29Zm2.85.86v-4.04a5.42 5.42 0 0 1 1.96-.37c1.26 0 1.99.6 1.99 1.73v2.68h-1.2v-2.6c0-.58-.27-.85-.8-.85-.27 0-.53.05-.77.15v3.3h-1.18Zm6.65.1c-1.04 0-1.56-.55-1.56-1.66v-1.82h-.6v-.93h.6v-.93l1.2-.06v1h.95v.92h-.96v1.8c0 .5.21.72.6.72.15 0 .3-.02.46-.05l.06.93c-.25.06-.5.08-.75.08Zm3.02 0c-1.2 0-1.79-.57-1.79-1.32 0-.84.7-1.33 1.74-1.33.26 0 .52.02.77.06v-.2c0-.51-.3-.76-.88-.76-.4 0-.78.07-1.14.2l-.22-.9a4.4 4.4 0 0 1 1.5-.26c1.27 0 1.9.66 1.9 1.8v2.34c-.35.18-1.02.37-1.89.37Zm.72-.95v-.9c-.2-.05-.4-.07-.61-.07-.4 0-.71.15-.71.55 0 .35.26.54.72.54.2 0 .41-.04.6-.12Zm5.26-3.3-.23.91a2.7 2.7 0 0 0-.98-.2c-.7 0-1.08.47-1.08 1.26 0 .87.4 1.32 1.14 1.32.34-.01.66-.08.96-.22l.2.94c-.4.16-.82.25-1.25.24-1.44 0-2.27-.87-2.27-2.24s.82-2.27 2.2-2.27c.45 0 .9.09 1.3.25ZM52.25 33c-1.04 0-1.56-.55-1.56-1.66v-1.82h-.6v-.93h.6v-.93l1.2-.06v1h.95v.92h-.96v1.8c0 .5.21.72.6.72.15 0 .3-.02.46-.05l.06.93c-.25.06-.5.08-.75.08Z"/><path fill="url(#a)" d="M19.34 24c6.33 0 9.5-4.5 12.66-9H11v9h8.34Z"/><path fill="url(#b)" d="M44.66 7c-6.33 0-9.5 4-12.66 8h21V7h-8.34Z"/><defs><linearGradient id="a" x1="15.25" x2="30.84" y1="19.92" y2="14.49" gradientUnits="userSpaceOnUse"><stop stop-color="#005AB9"/><stop offset="1" stop-color="#1E3764"/></linearGradient><linearGradient id="b" x1="33.27" x2="49.39" y1="15.69" y2="9.89" gradientUnits="userSpaceOnUse"><stop stop-color="#FBA900"/><stop offset="1" stop-color="#FFD800"/></linearGradient></defs></svg>
